X:43
T:Pavane de Spaigne (XXX)
T:For Pavaniglia (Caroso) and Spanish Pavane (Arbeau)
N:Ed. Aaron Elkiss. Matches Pennsic Pile 46.
M:C
L:1/8
K:C major
"Dm"def2 e2d2 | "A"^c3B A2B2 | ^c2d2 e2c2 | "Dm"d3e f2e2 | \
d2B2 c2d2 | "C"e2c2 c2ga | g2f2 e2d2 | e2c2 c2fg |
"Am"a2g2 "F"f2e2 | "Dm"f2d2 d2a2 | "G"g2f2 e2d2 | "A"^c3B A2B2 | \
^c2d2 e2c2 | "D"d6"A"e2 | "Dm"f2g2 "A"a4 | "D"^f8 |]

